src/pos-icons/cloud-search-outline.svg

<svg height="24" viewBox="0 0 24 24" width="24" xmlns="http://www.w3.org/2000/svg"><path d="m15.5 12c2.5 0 4.5 2 4.5 4.5 0 .88-.25 1.71-.69 2.4l3.08 3.1-1.39 1.39-3.12-3.07c-.69.43-1.51.68-2.38.68-2.5 0-4.5-2-4.5-4.5s2-4.5 4.5-4.5m0 2a2.5 2.5 0 0 0 -2.5 2.5 2.5 2.5 0 0 0 2.5 2.5 2.5 2.5 0 0 0 2.5-2.5 2.5 2.5 0 0 0 -2.5-2.5m6.5-1a3 3 0 0 0 -3-3h-1.5v-.5a5.5 5.5 0 0 0 -5.5-5.5c-2.5 0-4.63 1.69-5.29 4h-.71a4 4 0 0 0 -4 4 4 4 0 0 0 4 4h3v.5c0 .5.06 1 .17 1.5h-3.17a6 6 0 0 1 -6-6c0-3.1 2.34-5.64 5.35-5.96 1.25-2.4 3.76-4.04 6.65-4.04 3.64 0 6.67 2.59 7.36 6.04 2.59.18 4.64 2.32 4.64 4.96 0 1.65-.79 3.1-2 4v-.5c0-.73-.12-1.44-.35-2.1.22-.4.35-.9.35-1.4z"/></svg>

<?xml version="1.0" encoding="UTF-8"?><!DOCTYPE svg PUBLIC "-//W3C//DTD SVG 1.1//EN" "http://www.w3.org/Graphics/SVG/1.1/DTD/svg11.dtd"><svg xmlns="http://www.w3.org/2000/svg" xmlns:xlink="http://www.w3.org/1999/xlink" version="1.1" id="mdi-cloud-search-outline" width="24" height="24" viewBox="0 0 24 24"><path d="M15.5,12C18,12 20,14 20,16.5C20,17.38 19.75,18.21 19.31,18.9L22.39,22L21,23.39L17.88,20.32C17.19,20.75 16.37,21 15.5,21C13,21 11,19 11,16.5C11,14 13,12 15.5,12M15.5,14A2.5,2.5 0 0,0 13,16.5A2.5,2.5 0 0,0 15.5,19A2.5,2.5 0 0,0 18,16.5A2.5,2.5 0 0,0 15.5,14M22,13A3,3 0 0,0 19,10H17.5V9.5A5.5,5.5 0 0,0 12,4C9.5,4 7.37,5.69 6.71,8H6A4,4 0 0,0 2,12A4,4 0 0,0 6,16H9V16.5C9,17 9.06,17.5 9.17,18H6A6,6 0 0,1 0,12C0,8.9 2.34,6.36 5.35,6.04C6.6,3.64 9.11,2 12,2C15.64,2 18.67,4.59 19.36,8.04C21.95,8.22 24,10.36 24,13C24,14.65 23.21,16.1 22,17V16.5C22,15.77 21.88,15.06 21.65,14.4C21.87,14 22,13.5 22,13Z" /></svg>
